icons/outline/wheat.svg

<!--
category: Food
tags: [food, nature, greenary, grow, soil, harvest, plant, leaf, tree, flower]
version: "1.0"
-->
<svg 
   width="24" 
   height="24" 
   viewBox="0 0 24 24" 
   fill="none" 
   xmlns="http://www.w3.org/2000/svg"
   stroke="currentColor" 
   stroke-width="2" 
   stroke-linecap="round" 
   stroke-linejoin="round"
>
   <path d="M12.0142 21.5142V17.7642"/>
   <path d="M5.92973 9.50366L5.4998 11.1085C4.7877 13.7672 6.36537 16.4999 9.02397 17.2126C10.0205 17.4806 11.0174 17.7471 12.0142 18.0142V14.5743C11.85 12.4689 10.3771 10.6955 8.33757 10.1478L5.92973 9.50366Z" />
   <path d="M13.7441 11.1639C14.1985 10.7096 14.5589 10.1702 14.8048 9.57654C15.0507 8.98288 15.1772 8.34667 15.1772 7.7041C15.1772 7.06153 15.0507 6.4252 14.8048 5.83154C14.5589 5.23788 14.1985 4.69851 13.7441 4.24414L12.0142 2.51416L10.2842 4.24414C9.82981 4.69851 9.46941 5.23788 9.22351 5.83154C8.97761 6.4252 8.85107 7.06153 8.85107 7.7041C8.85107 8.34667 8.97761 8.98288 9.22351 9.57654C9.46941 10.1702 9.82981 10.7096 10.2842 11.1639" />
   <path d="M18.0988 9.50366L18.5286 11.1085C19.2407 13.7672 17.663 16.4999 15.0045 17.2126C14.008 17.4806 13.011 17.7471 12.0142 18.0142V14.5743C12.1784 12.4689 13.6514 10.6955 15.6908 10.1478L18.0988 9.50366Z" />
</svg>

<!--
category: Food
tags: [food, nature, greenary, grow, soil, harvest, plant, leaf, tree, flower]
-->
<svg
  xmlns="http://www.w3.org/2000/svg"
  width="24"
  height="24"
  viewBox="0 0 24 24"
  fill="none"
  stroke="currentColor"
  stroke-width="2"
  stroke-linecap="round"
  stroke-linejoin="round"
>
  <path d="M12.014 21.514v-3.75" />
  <path d="M5.93 9.504l-.43 1.604c-.712 2.659 .866 5.391 3.524 6.105c.997 .268 1.993 .535 2.99 .801v-3.44c-.164 -2.105 -1.637 -3.879 -3.676 -4.426l-2.408 -.644z" />
  <path d="M13.744 11.164c.454 -.454 .815 -.994 1.061 -1.587c.246 -.594 .372 -1.23 .372 -1.873c0 -.643 -.126 -1.279 -.372 -1.872c-.246 -.594 -.606 -1.133 -1.061 -1.588l-1.73 -1.73l-1.73 1.73c-.454 .454 -.815 .994 -1.06 1.588c-.246 .594 -.372 1.23 -.373 1.872c0 .643 .127 1.279 .373 1.873c.246 .594 .606 1.133 1.06 1.587" />
  <path d="M18.099 9.504l.43 1.604c.712 2.659 -.866 5.391 -3.525 6.105c-.997 .268 -1.994 .535 -2.99 .801v-3.44c.164 -2.105 1.637 -3.879 3.677 -4.426l2.408 -.644z" />
</svg>
